X:1
T:Pick a Bale of Cotton
M:4/4
L:1/8
K:G
 B2 G2 GG GG| GG GG E D3| B2 G2 GG GG| DD FF G4| B4 c d3| GG GG E D3|\
 B4 c d3| DD FF G4|
